public/avatar/item2/49.svg

<svg xmlns:xlink="http://www.w3.org/1999/xlink" height="99.2" width="82.2" xmlns="http://www.w3.org/2000/svg"><g transform="translate(31 46.75)"><use height="3.95" transform="translate(12.4 19.8)" width="4.6" xlink:href="#a"/><use height="4" transform="translate(5.65 24.75)" width="4.6" xlink:href="#b"/><use height="3.95" transform="translate(1.5 26.25)" width="4.65" xlink:href="#c"/><use height="4" transform="translate(8.1 27.65)" width="4.65" xlink:href="#d"/><use height="4" transform="translate(11.8 25.45)" width="4.6" xlink:href="#b"/><use height="3.95" transform="translate(9 22.2)" width="4.6" xlink:href="#a"/><use height="3.95" transform="translate(-2.8 27.1)" width="4.6" xlink:href="#a"/><use height="3.95" transform="translate(4.4 29.6)" width="4.6" xlink:href="#a"/><use height="3.95" transform="translate(-4.35 31.25)" width="4.6" xlink:href="#a"/><use height="3.95" transform="translate(-12.95 28.9)" width="4.6" xlink:href="#a"/><use height="3.95" transform="translate(-11.4 25.1)" width="4.6" xlink:href="#a"/><use height="3.95" transform="translate(-18.4 20)" width="4.6" xlink:href="#a"/><use height="4" transform="translate(-7.4 26.5)" width="4.6" xlink:href="#b"/><use height="4" transform="translate(-15.3 23.1)" width="4.6" xlink:href="#b"/><use height="4" transform="translate(.05 30.95)" width="4.65" xlink:href="#d"/><use height="4" transform="translate(-8.75 30.6)" width="4.65" xlink:href="#d"/><use height="4" transform="translate(-16.5 26.6)" width="4.65" xlink:href="#d"/></g><defs><use height="3.95" width="4.6" xlink:href="#e" id="a"/><use height="4" width="4.6" xlink:href="#f" id="b"/><use height="3.95" width="4.65" xlink:href="#g" id="c"/><use height="4" width="4.65" xlink:href="#h" id="d"/><g id="e" fill-rule="evenodd"><path d="M2.3.05Q2.3 2 0 2T-2.3.05q0-2 2.3-2t2.3 2" transform="translate(2.3 1.95)"/><path d="M0 1.45q-1.65 0-1.65-1.4Q-1.65-1.4 0-1.4T1.65.05q0 1.4-1.65 1.4" fill="#30e6ff" transform="translate(2.3 1.95)"/><path d="m.75-.95-.1-.35Q1.7-.95 1.7 0q0 1.45-1.7 1.45-1.55 0-1.7-1.3l.9.25Q.75.4.75-.95" fill="#1d5f7f" transform="translate(2.3 1.95)"/><path d="M-.5-1.2q.7 0 .7.6 0 .65-.7.65t-.7-.65q0-.6.7-.6" fill="#fff" transform="translate(2.3 1.95)"/></g><g id="f" fill-rule="evenodd"><path d="M2.3 0q0 2-2.3 2t-2.3-2q0-2 2.3-2t2.3 2" transform="translate(2.3 2)"/><path d="M0 1.4q-1.65 0-1.65-1.4T0-1.4q1.65 0 1.65 1.4T0 1.4" fill="#ff6e30" transform="translate(2.3 2)"/><path d="m.75-.95-.1-.35Q1.7-.95 1.7 0q0 1.45-1.7 1.45-1.5 0-1.7-1.35l.9.25Q.75.35.75-.95" fill="#cc5826" transform="translate(2.3 2)"/><path d="M-.5-1.25q.7 0 .7.65 0 .6-.7.6t-.7-.6q0-.65.7-.65" fill="#fff" transform="translate(2.3 2)"/></g><g id="g" fill-rule="evenodd"><path d="M2.35.05Q2.35 2 0 2-2.3 2-2.3.05q0-2 2.3-2 2.35 0 2.35 2" transform="translate(2.3 1.95)"/><path d="M0 1.45q-1.6 0-1.6-1.4Q-1.6-1.4 0-1.4q1.65 0 1.65 1.45 0 1.4-1.65 1.4" fill="#30ff4c" transform="translate(2.3 1.95)"/><path d="M.75-.95.7-1.3q1 .35 1 1.3 0 1.45-1.7 1.45-1.55 0-1.65-1.3l.9.25Q.75.4.75-.95" fill="#25c43a" transform="translate(2.3 1.95)"/><path d="M-.5-1.2q.75 0 .75.6 0 .65-.75.65-.7 0-.7-.65 0-.6.7-.6" fill="#fff" transform="translate(2.3 1.95)"/></g><g id="h" fill-rule="evenodd"><path d="M2.35 0q0 2-2.3 2Q-2.3 2-2.3 0T.05-2q2.3 0 2.3 2" transform="translate(2.3 2)"/><path d="M.05 1.4Q-1.6 1.4-1.6 0T.05-1.4q1.6 0 1.6 1.4T.05 1.4" fill="#ffc430" transform="translate(2.3 2)"/><path d="m1.15-.7-.1-.4q.6.45.6 1.1 0 1.4-1.6 1.4Q-1.4 1.4-1.6.15q.5.5 1.2.5Q1.15.65 1.15-.7" fill="#bf9324" transform="translate(2.3 2)"/><path d="M-.2-1.1q.8 0 .8.7 0 .65-.8.65-.85 0-.85-.65 0-.7.85-.7" fill="#fff" transform="translate(2.3 2)"/></g></defs></svg>

<?xml version="1.0" encoding="UTF-8" standalone="no"?>
<svg xmlns:xlink="http://www.w3.org/1999/xlink" height="99.2px" width="82.2px" xmlns="http://www.w3.org/2000/svg">
  <g transform="matrix(1.0, 0.0, 0.0, 1.0, 31.0, 46.75)">
    <use height="3.95" transform="matrix(1.0, 0.0, 0.0, 1.0, 12.4, 19.8)" width="4.6" xlink:href="#sprite0"/>
    <use height="4.0" transform="matrix(1.0, 0.0, 0.0, 1.0, 5.65, 24.75)" width="4.6" xlink:href="#sprite1"/>
    <use height="3.95" transform="matrix(1.0, 0.0, 0.0, 1.0, 1.5, 26.25)" width="4.65" xlink:href="#sprite2"/>
    <use height="4.0" transform="matrix(1.0, 0.0, 0.0, 1.0, 8.1, 27.65)" width="4.65" xlink:href="#sprite3"/>
    <use height="4.0" transform="matrix(1.0, 0.0, 0.0, 1.0, 11.8, 25.45)" width="4.6" xlink:href="#sprite1"/>
    <use height="3.95" transform="matrix(1.0, 0.0, 0.0, 1.0, 9.0, 22.2)" width="4.6" xlink:href="#sprite0"/>
    <use height="3.95" transform="matrix(1.0, 0.0, 0.0, 1.0, -2.8, 27.1)" width="4.6" xlink:href="#sprite0"/>
    <use height="3.95" transform="matrix(1.0, 0.0, 0.0, 1.0, 4.4, 29.6)" width="4.6" xlink:href="#sprite0"/>
    <use height="3.95" transform="matrix(1.0, 0.0, 0.0, 1.0, -4.35, 31.25)" width="4.6" xlink:href="#sprite0"/>
    <use height="3.95" transform="matrix(1.0, 0.0, 0.0, 1.0, -12.95, 28.9)" width="4.6" xlink:href="#sprite0"/>
    <use height="3.95" transform="matrix(1.0, 0.0, 0.0, 1.0, -11.4, 25.1)" width="4.6" xlink:href="#sprite0"/>
    <use height="3.95" transform="matrix(1.0, 0.0, 0.0, 1.0, -18.4, 20.0)" width="4.6" xlink:href="#sprite0"/>
    <use height="4.0" transform="matrix(1.0, 0.0, 0.0, 1.0, -7.4, 26.5)" width="4.6" xlink:href="#sprite1"/>
    <use height="4.0" transform="matrix(1.0, 0.0, 0.0, 1.0, -15.3, 23.1)" width="4.6" xlink:href="#sprite1"/>
    <use height="4.0" transform="matrix(1.0, 0.0, 0.0, 1.0, 0.05, 30.95)" width="4.65" xlink:href="#sprite3"/>
    <use height="4.0" transform="matrix(1.0, 0.0, 0.0, 1.0, -8.75, 30.6)" width="4.65" xlink:href="#sprite3"/>
    <use height="4.0" transform="matrix(1.0, 0.0, 0.0, 1.0, -16.5, 26.6)" width="4.65" xlink:href="#sprite3"/>
  </g>
  <defs>
    <g id="sprite0" transform="matrix(1.0, 0.0, 0.0, 1.0, 2.3, 1.95)">
      <use height="3.95" transform="matrix(1.0, 0.0, 0.0, 1.0, -2.3, -1.95)" width="4.6" xlink:href="#shape0"/>
    </g>
    <g id="shape0" transform="matrix(1.0, 0.0, 0.0, 1.0, 2.3, 1.95)">
      <path d="M2.3 0.05 Q2.3 2.0 0.0 2.0 -2.3 2.0 -2.3 0.05 -2.3 -1.95 0.0 -1.95 2.3 -1.95 2.3 0.05" fill="#000000" fill-rule="evenodd" stroke="none"/>
      <path d="M0.0 1.45 Q-1.65 1.45 -1.65 0.05 -1.65 -1.4 0.0 -1.4 1.65 -1.4 1.65 0.05 1.65 1.45 0.0 1.45" fill="#30e6ff" fill-rule="evenodd" stroke="none"/>
      <path d="M0.75 -0.95 L0.65 -1.3 Q1.7 -0.95 1.7 0.0 1.7 1.45 0.0 1.45 -1.55 1.45 -1.7 0.15 L-0.8 0.4 Q0.75 0.4 0.75 -0.95" fill="#1d5f7f" fill-rule="evenodd" stroke="none"/>
      <path d="M-0.5 -1.2 Q0.2 -1.2 0.2 -0.6 0.2 0.05 -0.5 0.05 -1.2 0.05 -1.2 -0.6 -1.2 -1.2 -0.5 -1.2" fill="#ffffff" fill-rule="evenodd" stroke="none"/>
    </g>
    <g id="sprite1" transform="matrix(1.0, 0.0, 0.0, 1.0, 2.3, 2.0)">
      <use height="4.0" transform="matrix(1.0, 0.0, 0.0, 1.0, -2.3, -2.0)" width="4.6" xlink:href="#shape1"/>
    </g>
    <g id="shape1" transform="matrix(1.0, 0.0, 0.0, 1.0, 2.3, 2.0)">
      <path d="M2.3 0.0 Q2.3 2.0 0.0 2.0 -2.3 2.0 -2.3 0.0 -2.3 -2.0 0.0 -2.0 2.3 -2.0 2.3 0.0" fill="#000000" fill-rule="evenodd" stroke="none"/>
      <path d="M0.0 1.4 Q-1.65 1.4 -1.65 0.0 -1.65 -1.4 0.0 -1.4 1.65 -1.4 1.65 0.0 1.65 1.4 0.0 1.4" fill="#ff6e30" fill-rule="evenodd" stroke="none"/>
      <path d="M0.75 -0.95 L0.65 -1.3 Q1.7 -0.95 1.7 0.0 1.7 1.45 0.0 1.45 -1.5 1.45 -1.7 0.1 L-0.8 0.35 Q0.75 0.35 0.75 -0.95" fill="#cc5826" fill-rule="evenodd" stroke="none"/>
      <path d="M-0.5 -1.25 Q0.2 -1.25 0.2 -0.6 0.2 0.0 -0.5 0.0 -1.2 0.0 -1.2 -0.6 -1.2 -1.25 -0.5 -1.25" fill="#ffffff" fill-rule="evenodd" stroke="none"/>
    </g>
    <g id="sprite2" transform="matrix(1.0, 0.0, 0.0, 1.0, 2.3, 1.95)">
      <use height="3.95" transform="matrix(1.0, 0.0, 0.0, 1.0, -2.3, -1.95)" width="4.65" xlink:href="#shape2"/>
    </g>
    <g id="shape2" transform="matrix(1.0, 0.0, 0.0, 1.0, 2.3, 1.95)">
      <path d="M2.35 0.05 Q2.35 2.0 0.0 2.0 -2.3 2.0 -2.3 0.05 -2.3 -1.95 0.0 -1.95 2.35 -1.95 2.35 0.05" fill="#000000" fill-rule="evenodd" stroke="none"/>
      <path d="M0.0 1.45 Q-1.6 1.45 -1.6 0.05 -1.6 -1.4 0.0 -1.4 1.65 -1.4 1.65 0.05 1.65 1.45 0.0 1.45" fill="#30ff4c" fill-rule="evenodd" stroke="none"/>
      <path d="M0.75 -0.95 L0.7 -1.3 Q1.7 -0.95 1.7 0.0 1.7 1.45 0.0 1.45 -1.55 1.45 -1.65 0.15 L-0.75 0.4 Q0.75 0.4 0.75 -0.95" fill="#25c43a" fill-rule="evenodd" stroke="none"/>
      <path d="M-0.5 -1.2 Q0.25 -1.2 0.25 -0.6 0.25 0.05 -0.5 0.05 -1.2 0.05 -1.2 -0.6 -1.2 -1.2 -0.5 -1.2" fill="#ffffff" fill-rule="evenodd" stroke="none"/>
    </g>
    <g id="sprite3" transform="matrix(1.0, 0.0, 0.0, 1.0, 2.3, 2.0)">
      <use height="4.0" transform="matrix(1.0, 0.0, 0.0, 1.0, -2.3, -2.0)" width="4.65" xlink:href="#shape3"/>
    </g>
    <g id="shape3" transform="matrix(1.0, 0.0, 0.0, 1.0, 2.3, 2.0)">
      <path d="M2.35 0.0 Q2.35 2.0 0.05 2.0 -2.3 2.0 -2.3 0.0 -2.3 -2.0 0.05 -2.0 2.35 -2.0 2.35 0.0" fill="#000000" fill-rule="evenodd" stroke="none"/>
      <path d="M0.05 1.4 Q-1.6 1.4 -1.6 0.0 -1.6 -1.4 0.05 -1.4 1.65 -1.4 1.65 0.0 1.65 1.4 0.05 1.4" fill="#ffc430" fill-rule="evenodd" stroke="none"/>
      <path d="M1.15 -0.7 L1.05 -1.1 Q1.65 -0.65 1.65 0.0 1.65 1.4 0.05 1.4 -1.4 1.4 -1.6 0.15 -1.1 0.65 -0.4 0.65 1.15 0.65 1.15 -0.7" fill="#bf9324" fill-rule="evenodd" stroke="none"/>
      <path d="M-0.2 -1.1 Q0.6 -1.1 0.6 -0.4 0.6 0.25 -0.2 0.25 -1.05 0.25 -1.05 -0.4 -1.05 -1.1 -0.2 -1.1" fill="#ffffff" fill-rule="evenodd" stroke="none"/>
    </g>
  </defs>
</svg>
